assets/icons/qvision/remove_shopping_cart.svg

<svg xmlns="http://www.w3.org/2000/svg" height="24" viewBox="0 0 24 24" width="24"><path d="M0 0h24v24H0z" fill="none"/><path d="M22.73 22.73L2.77 2.77 2 2l-.73-.73L0 2.54l4.39 4.39 2.21 4.66-1.35 2.45c-.16.28-.25.61-.25.96 0 1.1.9 2 2 2h7.46l1.38 1.38c-.5.36-.83.95-.83 1.62 0 1.1.89 2 1.99 2 .67 0 1.26-.33 1.62-.84L21.46 24l1.27-1.27zM7.42 15c-.14 0-.25-.11-.25-.25l.03-.12.9-1.63h2.36l2 2H7.42zm8.13-2c.75 0 1.41-.41 1.75-1.03l3.58-6.49c.08-.14.12-.31.12-.48 0-.55-.45-1-1-1H6.54l9.01 9zM7 18c-1.1 0-1.99.9-1.99 2S5.9 22 7 22s2-.9 2-2-.9-2-2-2z"/></svg>

<svg width="24" height="24" viewBox="0 0 24 24" fill="none" xmlns="http://www.w3.org/2000/svg">
<g clip-path="url(#clip0_147_4627)">
<path d="M22.73 22.73L2.77 2.77L2 2L1.27 1.27L0 2.54L4.39 6.93L6.6 11.59L5.25 14.04C5.09 14.32 5 14.65 5 15C5 16.1 5.9 17 7 17H14.46L15.84 18.38C15.34 18.74 15.01 19.33 15.01 20C15.01 21.1 15.9 22 17 22C17.67 22 18.26 21.67 18.62 21.16L21.46 24L22.73 22.73ZM7.42 15C7.28 15 7.17 14.89 7.17 14.75L7.2 14.63L8.1 13H10.46L12.46 15H7.42ZM15.55 13C16.3 13 16.96 12.59 17.3 11.97L20.88 5.48C20.96 5.34 21 5.17 21 5C21 4.45 20.55 4 20 4H6.54L15.55 13ZM7 18C5.9 18 5.01 18.9 5.01 20C5.01 21.1 5.9 22 7 22C8.1 22 9 21.1 9 20C9 18.9 8.1 18 7 18Z" fill="#323232"/>
</g>
<defs>
<clipPath id="clip0_147_4627">
<rect width="24" height="24" fill="white"/>
</clipPath>
</defs>
</svg>
